static/card-icons/js-code.svg

<svg viewBox="0 0 512 512" xmlns="http://www.w3.org/2000/svg"><path d="m511.987 104.637c0 .046.001.092.002.138-.005-.293-.001-.051 0-.002-.058-3.831-1.624-7.694-4.385-10.382l-89.995-89.995c-2.836-2.763-6.632-4.396-10.609-4.396h-241c-24.813 0-45 20.187-45 45v106h-76c-24.813 0-45 20.187-45 45v180c0 24.813 20.187 45 45 45h76v46c0 24.813 20.187 45 45 45h301c24.813 0 45-20.187 45-45v-362c-.009-.121-.013-.242-.013-.363zm-89.987-53.424 38.787 38.787h-38.787zm-377 339.787c-8.271 0-15-6.729-15-15v-180c0-8.271 6.729-15 15-15h302c8.271 0 15 6.729 15 15v180c0 8.271-6.729 15-15 15zm437 76c0 8.271-6.729 15-15 15h-301c-8.271 0-15-6.729-15-15v-46h196c24.813 0 45-20.187 45-45v-180c0-24.813-20.187-45-45-45h-196v-106c0-8.271 6.729-15 15-15h226v75c0 8.284 6.716 15 15 15h75z"/><path d="m256 271.001c-8.291 0-15-6.708-15-15 0-13.244 16.121-20.093 25.606-10.607 5.857 5.858 15.355 5.858 21.213 0s5.858-15.355 0-21.213c-8.499-8.5-19.799-13.181-31.819-13.181-24.872 0-45 20.127-45 45 0 24.872 20.127 45 45 45 13.268 0 20.075 16.137 10.606 25.607-5.863 5.863-15.349 5.862-21.214 0-5.857-5.857-15.355-5.857-21.213.001s-5.857 15.355.001 21.213c17.587 17.586 46.05 17.589 63.64-.001 8.499-8.5 13.18-19.8 13.18-31.819 0-24.871-20.126-45-45-45z"/><path d="m166 211c-8.284 0-15 6.716-15 15v90c0 8.271-6.729 15-15 15s-15-6.729-15-15c0-8.284-6.716-15-15-15s-15 6.716-15 15c0 24.813 20.187 45 45 45s45-20.187 45-45v-90c0-8.284-6.716-15-15-15z"/></svg>

<?xml version="1.0" encoding="iso-8859-1"?>
<!-- Generator: Adobe Illustrator 19.0.0, SVG Export Plug-In . SVG Version: 6.00 Build 0)  -->
<svg version="1.1" id="Capa_1" xmlns="http://www.w3.org/2000/svg" xmlns:xlink="http://www.w3.org/1999/xlink" x="0px" y="0px"
	 viewBox="0 0 512 512" style="enableBackground:new 0 0 512 512;" xml:space="preserve">
<g>
	<g>
		<path d="M511.987,104.637c0,0.046,0.001,0.092,0.002,0.138c-0.005-0.293-0.001-0.051,0-0.002
			c-0.058-3.831-1.624-7.694-4.385-10.382L417.609,4.396C414.773,1.633,410.977,0,407,0H166c-24.813,0-45,20.187-45,45v106H45
			c-24.813,0-45,20.187-45,45v180c0,24.813,20.187,45,45,45h76v46c0,24.813,20.187,45,45,45h301c24.813,0,45-20.187,45-45V105
			C511.991,104.879,511.987,104.758,511.987,104.637z M422,51.213L460.787,90H422V51.213z M45,391c-8.271,0-15-6.729-15-15V196
			c0-8.271,6.729-15,15-15h302c8.271,0,15,6.729,15,15v180c0,8.271-6.729,15-15,15H45z M482,467c0,8.271-6.729,15-15,15H166
			c-8.271,0-15-6.729-15-15v-46h196c24.813,0,45-20.187,45-45V196c0-24.813-20.187-45-45-45H151V45c0-8.271,6.729-15,15-15h226v75
			c0,8.284,6.716,15,15,15h75V467z"/>
	</g>
</g>
<g>
	<g>
		<path d="M256,271.001c-8.291,0-15-6.708-15-15c0-13.244,16.121-20.093,25.606-10.607c5.857,5.858,15.355,5.858,21.213,0
			c5.858-5.858,5.858-15.355,0-21.213C279.32,215.681,268.02,211,256,211c-24.872,0-45,20.127-45,45c0,24.872,20.127,45,45,45
			c13.268,0,20.075,16.137,10.606,25.607c-5.863,5.863-15.349,5.862-21.214,0c-5.857-5.857-15.355-5.857-21.213,0.001
			c-5.858,5.858-5.857,15.355,0.001,21.213c17.587,17.586,46.05,17.589,63.64-0.001c8.499-8.5,13.18-19.8,13.18-31.819
			C301,291.13,280.874,271.001,256,271.001z"/>
	</g>
</g>
<g>
	<g>
		<path d="M166,211c-8.284,0-15,6.716-15,15v90c0,8.271-6.729,15-15,15s-15-6.729-15-15c0-8.284-6.716-15-15-15s-15,6.716-15,15
			c0,24.813,20.187,45,45,45s45-20.187,45-45v-90C181,217.716,174.284,211,166,211z"/>
	</g>
</g>
<g>
</g>
<g>
</g>
<g>
</g>
<g>
</g>
<g>
</g>
<g>
</g>
<g>
</g>
<g>
</g>
<g>
</g>
<g>
</g>
<g>
</g>
<g>
</g>
<g>
</g>
<g>
</g>
<g>
</g>
</svg>
